X: 281
T: Count Brown's March
B: C. & S. Thompson, "The Compleat Tutor for the Fife" c.1760 p.28 #2
S: http://imslp.org/wiki/The_Compleat_Tutor_for_the_Fife_(Anonymous)
Z: 2014 John Chambers <jc:trillian.mit.edu>
N: Both strains have 9 bars.
M: C|
L: 1/8
K: D
% - - - - - - - - - - - - - - - - - - - - - - - - -
(AB/c/) |\
d2dd dgec | d2cB A2dc | BAGF GBAG | F2E2 D2 (AB/c/) |\
d2dd dged | c2d2 e3d | cecA B2A^G | A2AA AA BA/^G/ | A6 :|
|: (dc/d/) |\
e2ee e2f2 | edcd Te2 de/f/ | ggfe ffed | edcB A2AA |\
BGBd cAce | dBdf e3g | fafd e2dc | d2DD FFAA | d6 :|
% - - - - - - - - - - - - - - - - - - - - - - - - -
